X:192
T: Cai sang
N: C1684
O: China,Jiangxi, Jingdezhen
S: IV, 246]
R: Xiaodiao]
M: 2/4
L: 1/16
K: F
d4c4 | d4f2z2 | d3fA2c2 | d4f2z2 | c2f2d2c2 | A2A4G2 | A8 |
c2A2c2f2 | d4c2A2 | G4G4 | c4c2A2 | G2A2G2F2 | D2D4F2 | G8 |
a2a2g2a2 | g4f2z2 | d2f2c4 | d4f2c2 | d8

@@@ Tune index: 6747
